X:1
T: Mrs. MacIntosh of Raigmore
C:
R:Strathspey
Q: 128
K:C
M:4/4
L:1/16
|:E2|CE3 A3E FD3 D3c|d3B dcBA GB3 B3c|CE3 A3E F3A d3f|e3c dcBA EA3 A2E2|
CE3 A3E FD3 D3c|d3B dcBA GB3 B3c|CE3 A3E F3A d3f|e3c dcBA EA3 A2e2|
a3e c3e A3e c3e|d3e fedc dB3 B3g|a3e c3e A3e c3e|((3d2e2f2) ((3e2f2g2) aA3 A3g|
a3e c3e A3e c3e|((3d2e2f2) ((3e2d2c2) dB3 B3d|((3c2B2A2) ((3G2A2B2) ((3A2B2c2) ((3d2e2f2) |((3e2a2g2) ((3e2f2d2) cA3 A2:|
